X:1
T:James Gibb editions
T:Psalm 40 (Becker) - Schütz
%%score [ ( 1 2 ) ( 3 4 ) ]
L:1/8
Q:1/4=100
M:2/2
K:C
V:1 treble nm="Soprano Alto"
V:2 treble 
V:3 bass nm="Tenor Bass"
V:4 bass 
V:1
"^Cornelius Becker\n(1561-1604)""^Psalm 40, SWV 137""^Heinrich Schütz\n(1585-1672)" D4 F2 A2 | %1
w: ~Ich har- re-|
w: mein Schrei- en|
 G2 F2 E4 | D2 d2 c2 A2 | c4 B4 | A4 :|[M:2/2] c4 A2 F2 | _B2 A2 G4 | F2 A2 F2 E2 | F2 D2 ^C4 | %9
w: te * *|ren, da neigt er|sich zu|mir,|aus fin- strer|Grub ge- ris-|sen, er- rett aus|tie- fem Schlamm,|
w: hört * *|ne, zog mich mit|Macht her-|für,|||||
 !courtesy!=C4 F2 A2 | c2 B2 A4 | G2 _B2 A2 F2 | G4 E4 | D8 |] %14
w: auf Fels stellt|er mein Fü-|ße, daß ich g'wiß|* ~|kann.|
w: |||||
V:2
 A,4 D2 E2 | E2 D2 (D2 ^C2) | D2 F2 E2 C2 | E4 E4 | E4 :|[M:2/2] F4 F2 C2 | F2 F4 E2 | %7
w: |* des Her\- *||||||
w: |* er ger\- *||||||
 F2 C2 D2 A,2 | A,2 G,2 A,4 | A,4 !courtesy!=C2 D2 | E2 D2 D4 | D2 D2 ^C2 D2 | (E2 D4) ^C2 | D8 |] %14
w: |||||tre\- * ten~~~~~~~~||
w: |||||||
V:3
 F,4 A,2 C2 | C2 A,2 A,4 | A,2 A,2 G,2 F,2 | (G,2 A,4) ^G,2 | A,4 :|[M:2/2] A,4 C2 A,2 | D2 C2 C4 | %7
 C2 A,2 A,2 E,2 | D,2 D,2 E,4 | %9
"^2. Der Herr hat mir gegeben\nein neu Lied in den Mund,\nviel seiner Gnade leben,\nden'n seine Furcht wird kund,\nwohl dem, der allezeite\nauf Gott sein Hoffnung stellt,\nentschlägt sich loser Leute,\ndenen die Lüg gefällt.\n\n3. Herr Gott, deine Gedanken\nsind groß und wunderbar, \ndein Güt und Treu ohn Wanken\nan uns beweisest klar,\ndir mag sich niemand gleichen,\ndein Werk unzählig sind,\nnoch will ich nicht verschweigen\ndein Ruhm auf Kindeskind." F,4 A,2 F,2 | %10
 G,2 G,4 ^F,2 | %11
 G,2"^6. Ich will in großer G'meinde\npred'gen Gerechtigkeit,\ndie den Gläub'gen alleine\ngereicht zur Seligkeit.\nGott, du kennst mein Gemüte,\nich wünsch aller Welt Heil,\nwollt, daß dein Treu und Güte\nkam jedermann zuteil.\n\n10. Denen, die nach Gott fragen,\nHeil und Freud widerfahr,\nsie müssen fröhlich sagen:\nLob sei Gott immerdar.\nIch bin arm und elende,\nder Herr doch sorgt für mich,\nerrett', schafft Hülf behende,\ner wird verziehen nicht." G,2 E,2 D,2 | %12
 _B,4 A,4 | A,8 |] %14
V:4
 D,4 D,2 A,,2 | C,2 D,2 A,,4 | D,2 D,2 E,2 F,2 | C,4 E,4 | A,,4 :|[M:2/2] F,4 F,2 F,2 | %6
 _B,,2 F,2 C,4 | F,2 F,2 D,2 ^C,2 | D,2 _B,,2 A,,4 | F,4 F,2 D,2 | C,2 G,,2 D,4 | %11
 G,,2 G,,2 A,,2 _B,,2 | G,,4 A,,4 | D,8 |] %14

